X: 10322
M: 6/8
L: 1/8
K: G
(GB)d (dB)d | (eg)B {B}A2G | (GB)d (dB)d | e3 g2G |\
(GB)d (dB)d | (eg)B {B}A2G | (gb)g (af)d | e3 g2 |]
g |\
(gb)g (af)d | (eg)B (BA)G | (gb)g (af)d | e3 g2g |\
(gb)g (af)d | (eg)B {B}A2G | (GB)d (dB)d | {d}e3 g2 |]


